X: 060642
T: Fly By Night
M: 4/4
L: 1/8
S: Luke O'Malley vol 1 (from Andy McGann-Larry Redican)
Z: B.Black
R: hornpipe
K: Bb
B,FDB FdBf|dbag ^fgec|(3AcA FA cege|\
ecAF =EF_EC|
B,FDB FdBf|dbag ^fgec|(3AcA FA cegf|1\
ecGA B2 DC :|2 ecGA B2 AB||
dc=Bc bc=Bc|dc=Bc ac=Bc|dc=Bc gc=Bc|\
(3bag (3f=ed c2 =Bc|
dc=Bc bc=Bc|dc=Bc ac=Bc|c2 bg =ecBG|\
F=EFG (3FGF (3_EDC||
